X: 8
T: Good night and God be with you
%R: _
B: "A Collection of Original Scotch-Tunes", Henry Playford, 1700, ed. p.4 #8
F: http://imslp.org/wiki/A_Collection_of_Original_Scotch_Tunes_(Various)
Z: 2015 John Chambers <jc:trillian.mit.edu>
N: Rest added between strains to fix the rhythm.
M: none
L: 1/8
K: C
% - - - - - - - - - - - - - - - - - - - - - - - - - - - - -
ed |\
c2c2 G3G | A2A2 g3f | ec ef efge | a2d2 d2 ||\
zc |\
dcde d2(cB) | dcde d3e | fc fg fg ge | a2d2 d2 |]
% - - - - - - - - - - - - - - - - - - - - - - - - - - - - -

%%sep 1 1 500
%%sep 1 1 500

